Obsidian-SemiLight/actions/24s/archive-remove.svg

<svg viewBox="0 0 24 24" xmlns="http://www.w3.org/2000/svg"><g transform="translate(1 1)"><path d="m4 3v16h1 7v-1h-7v-14h12v9h1v-10h-1-12z" fill="#4d4d4d"/><path d="m13 16v1h5v-1z" fill="#da4453"/></g></svg>

<svg xmlns="http://www.w3.org/2000/svg" viewBox="0 0 24 24">
  <defs id="defs3051">
    <style type="text/css" id="current-color-scheme">
      .ColorScheme-Text {
        color:#4d4d4d;
      }
      </style>
  </defs>
 <path 
     style="fill:currentColor;fill-opacity:1;stroke:none" 
     d="M 4 3 L 4 19 L 5 19 L 12 19 L 12 18 L 5 18 L 5 4 L 17 4 L 17 13 L 18 13 L 18 3 L 17 3 L 5 3 L 4 3 z "
     class="ColorScheme-Text"
     transform="translate(1,1)"
     />
    <path
     style="fill:#da4453;fill-opacity:1;stroke:none"
     d="M 13 16 L 13 17 L 18 17 L 18 16 L 13 16 z "
        transform="translate(1,1)"
     />
</svg>
